public/logo-full.svg

<svg width="2084" height="512" fill="none" xmlns="http://www.w3.org/2000/svg"><g clip-path="url(#a)"><path d="M363.976 253.602c0 59.657-48.629 108.108-108.725 108.108s-108.725-48.451-108.725-108.108c0-59.657 48.629-108.108 108.725-108.108s108.725 48.451 108.725 108.108z" stroke="#fff" stroke-width="20"/><path d="M363.976 127.101c0 60.036-48.677 108.707-108.725 108.707-60.049 0-108.725-48.671-108.725-108.707 0-60.036 48.676-108.708 108.725-108.708 60.048 0 108.725 48.672 108.725 108.708z" stroke="#fff" stroke-width="20"/><path d="M482.701 188.852c0 59.705-48.408 108.108-108.125 108.108-59.718 0-108.126-48.403-108.126-108.108 0-59.704 48.408-108.107 108.126-108.107 59.717 0 108.125 48.403 108.125 108.107z" stroke="#fff" stroke-width="20"/><path d="M482.701 330.342c0 59.705-48.408 108.108-108.125 108.108-59.718 0-108.126-48.403-108.126-108.108 0-59.705 48.408-108.108 108.126-108.108 59.717 0 108.125 48.403 108.125 108.108z" stroke="#fff" stroke-width="20"/><path d="M363.976 393.892c0 59.657-48.629 108.108-108.725 108.108s-108.725-48.451-108.725-108.108c0-59.657 48.629-108.107 108.725-108.107s108.725 48.45 108.725 108.107z" stroke="#fff" stroke-width="20"/><path d="M246.45 330.342c0 59.657-48.629 108.108-108.725 108.108S29 389.999 29 330.342c0-59.657 48.629-108.108 108.725-108.108S246.45 270.685 246.45 330.342z" stroke="#fff" stroke-width="20"/><path d="M246.45 188.852c0 59.658-48.629 108.108-108.725 108.108S29 248.51 29 188.852c0-59.657 48.629-108.107 108.725-108.107s108.725 48.45 108.725 108.107z" stroke="#fff" stroke-width="20"/><path d="M715.141 343.68c24.746 0 37.12-9.173 37.12-27.52 0-7.467-1.92-13.333-5.76-17.6-3.627-4.267-10.454-8-20.48-11.2l-26.24-8.64c-31.36-10.24-47.04-30.827-47.04-61.76 0-17.92 5.546-32.64 16.64-44.16 11.306-11.733 28.906-17.6 52.8-17.6 10.026 0 19.946 1.173 29.76 3.52 9.813 2.133 20.266 5.653 31.36 10.56l-11.84 32.96c-10.24-4.053-18.987-6.933-26.24-8.64-7.04-1.92-14.294-2.88-21.76-2.88-9.814 0-17.6 1.813-23.36 5.44-5.547 3.413-8.32 9.707-8.32 18.88 0 6.827 1.92 12.48 5.76 16.96 4.053 4.267 10.666 7.893 19.84 10.88l26.24 8.64c15.786 5.333 27.626 13.12 35.52 23.36 8.106 10.027 12.16 23.36 12.16 40 0 19.2-6.08 34.773-18.24 46.72-12.16 11.733-31.254 17.6-57.28 17.6-10.24 0-20.907-1.173-32-3.52-10.88-2.56-22.827-6.827-35.84-12.8l11.84-32.96c11.946 5.12 22.08 8.747 30.4 10.88 8.533 1.92 16.853 2.88 24.96 2.88zm236.665 23.04c-11.094 4.48-21.547 7.68-31.36 9.6-9.814 1.92-19.094 2.88-27.84 2.88-24.107 0-42.347-6.827-54.72-20.48-12.374-13.653-18.56-31.787-18.56-54.4v-19.2c0-15.147 2.773-28.267 8.32-39.36 5.546-11.093 13.44-19.733 23.68-25.92 10.24-6.187 22.293-9.28 36.16-9.28 11.306 0 21.866 2.347 31.68 7.04 10.026 4.48 18.133 11.627 24.32 21.44 6.4 9.6 9.6 21.973 9.6 37.12 0 4.48-.32 9.28-.96 14.4-.64 4.907-1.707 10.133-3.2 15.68h-94.08c.426 13.227 3.733 23.147 9.92 29.76 6.186 6.613 16.106 9.92 29.76 9.92 7.253 0 14.72-.853 22.4-2.56 7.893-1.707 16-4.267 24.32-7.68l10.56 31.04zm-64.32-125.12c-9.814 0-17.494 3.2-23.04 9.6-5.334 6.187-8.427 15.147-9.28 26.88h61.44c.213-1.067.32-2.027.32-2.88v-2.88c0-10.24-2.88-17.92-8.64-23.04-5.76-5.12-12.694-7.68-20.8-7.68zM1092.44 376l-40-67.52c-6.4 6.4-13.12 12.8-20.16 19.2V376h-36.799V139.2h36.799v147.84c12.16-12.373 22.61-24.213 31.36-35.52 8.96-11.52 17.17-24.107 24.64-37.76h42.24c-7.04 12.8-14.72 24.96-23.04 36.48-8.32 11.52-17.49 23.147-27.52 34.88l56.96 90.88h-44.48zm111.11-192.96h-38.72v-38.08h38.72v38.08zm-.96 192.96h-36.8V213.76h36.8V376zm148.3-5.44c-5.54 2.56-11.94 4.587-19.2 6.08a96.02 96.02 0 0 1-22.08 2.56c-12.37 0-22.29-2.56-29.76-7.68-7.46-5.12-12.9-12.267-16.32-21.44-3.2-9.173-4.8-19.627-4.8-31.36v-72.96h-26.24v-32h26.24v-42.24h36.8v42.24h50.56v32h-50.56v72.96c0 9.813 1.82 16.64 5.44 20.48 3.84 3.627 9.28 5.44 16.32 5.44 3.42 0 7.04-.32 10.88-.96 4.06-.853 8.54-2.24 13.44-4.16l9.28 31.04zm152.47 7.04c-10.88 0-19.63-2.24-26.24-6.72-6.4-4.48-11.09-10.027-14.08-16.64-9.17 8.533-18.03 14.827-26.56 18.88-8.53 4.053-17.71 6.08-27.52 6.08-14.29 0-24.85-4.587-31.68-13.76-6.61-9.173-9.92-20.8-9.92-34.88 0-9.387 1.71-17.6 5.12-24.64 3.63-7.253 9.49-12.907 17.6-16.96 8.11-4.053 19.2-6.08 33.28-6.08 5.55 0 11.31.427 17.28 1.28 5.97.64 11.95 1.493 17.92 2.56v-18.88c0-8.96-2.45-15.04-7.36-18.24-4.91-3.413-11.52-5.12-19.84-5.12-6.4 0-13.44.853-21.12 2.56-7.47 1.707-15.57 4.373-24.32 8l-10.56-31.36c21.55-8.747 41.07-13.12 58.56-13.12 15.79 0 27.95 2.667 36.48 8 8.75 5.333 14.83 12.373 18.24 21.12 3.41 8.747 5.12 18.133 5.12 28.16v62.4c0 3.2.85 6.293 2.56 9.28 1.92 2.773 5.55 4.16 10.88 4.16h3.52v33.92h-7.36zm-100.48-47.68c0 5.76 1.28 10.347 3.84 13.76 2.56 3.2 6.29 4.8 11.2 4.8 4.91 0 10.45-1.28 16.64-3.84 6.19-2.56 14.19-8.533 24-17.92v-13.76c-11.09-1.92-21.97-2.88-32.64-2.88-8.32 0-14.29 1.707-17.92 5.12-3.41 3.413-5.12 8.32-5.12 14.72zm231.31-82.56c-10.03 0-19.63 1.6-28.8 4.8-8.96 2.987-17.6 7.893-25.92 14.72V376h-36.8V213.76h34.88v24.96c10.88-10.24 20.58-17.493 29.12-21.76 8.53-4.267 17.7-6.4 27.52-6.4v36.8zm69.03 16.32V376h-36.8V213.76h34.88v21.44c10.02-8.747 19.3-15.04 27.84-18.88 8.53-3.84 17.28-5.76 26.24-5.76 19.84 0 33.38 8.747 40.64 26.24 10.66-9.387 20.58-16.107 29.76-20.16 9.17-4.053 18.45-6.08 27.84-6.08 14.93 0 26.34 5.013 34.24 15.04 7.89 9.813 11.84 23.68 11.84 41.6V376h-36.8V271.68c0-17.92-6.83-26.88-20.48-26.88-5.34 0-11.2 1.28-17.6 3.84-6.4 2.56-14.19 7.573-23.36 15.04V376h-36.8V271.68c0-17.92-6.83-26.88-20.48-26.88-5.34 0-11.2 1.28-17.6 3.84-6.4 2.56-14.19 7.573-23.36 15.04zM2044.93 376v-21.44c-9.81 8.533-18.98 14.827-27.52 18.88-8.53 3.84-17.17 5.76-25.92 5.76-14.5 0-25.7-4.907-33.6-14.72-7.89-10.027-11.84-24-11.84-41.92v-108.8h36.8v104.32c0 17.92 6.62 26.88 19.84 26.88 5.34 0 11.1-1.28 17.28-3.84 6.4-2.56 14.08-7.467 23.04-14.72V213.76h36.8V376h-34.88z" fill="#fff"/></g><defs><clipPath id="a"><path fill="#fff" d="M0 0h2084v512H0z"/></clipPath></defs></svg>

<svg width="2084" height="512" viewBox="0 0 2084 512" fill="none" xmlns="http://www.w3.org/2000/svg">
<g clip-path="url(#clip0)">
<path d="M363.976 253.602C363.976 313.259 315.347 361.71 255.251 361.71C195.155 361.71 146.526 313.259 146.526 253.602C146.526 193.945 195.155 145.494 255.251 145.494C315.347 145.494 363.976 193.945 363.976 253.602Z" stroke="white" stroke-width="20"/>
<path d="M363.976 127.101C363.976 187.137 315.299 235.808 255.251 235.808C195.202 235.808 146.526 187.137 146.526 127.101C146.526 67.0647 195.202 18.3934 255.251 18.3934C315.299 18.3934 363.976 67.0647 363.976 127.101Z" stroke="white" stroke-width="20"/>
<path d="M482.701 188.852C482.701 248.557 434.293 296.96 374.576 296.96C314.858 296.96 266.45 248.557 266.45 188.852C266.45 129.148 314.858 80.7448 374.576 80.7448C434.293 80.7448 482.701 129.148 482.701 188.852Z" stroke="white" stroke-width="20"/>
<path d="M482.701 330.342C482.701 390.047 434.293 438.45 374.576 438.45C314.858 438.45 266.45 390.047 266.45 330.342C266.45 270.637 314.858 222.234 374.576 222.234C434.293 222.234 482.701 270.637 482.701 330.342Z" stroke="white" stroke-width="20"/>
<path d="M363.976 393.892C363.976 453.549 315.347 502 255.251 502C195.155 502 146.526 453.549 146.526 393.892C146.526 334.235 195.155 285.785 255.251 285.785C315.347 285.785 363.976 334.235 363.976 393.892Z" stroke="white" stroke-width="20"/>
<path d="M246.45 330.342C246.45 389.999 197.821 438.45 137.725 438.45C77.6286 438.45 29 389.999 29 330.342C29 270.685 77.6286 222.234 137.725 222.234C197.821 222.234 246.45 270.685 246.45 330.342Z" stroke="white" stroke-width="20"/>
<path d="M246.45 188.852C246.45 248.51 197.821 296.96 137.725 296.96C77.6286 296.96 29 248.51 29 188.852C29 129.195 77.6286 80.7448 137.725 80.7448C197.821 80.7448 246.45 129.195 246.45 188.852Z" stroke="white" stroke-width="20"/>
<path d="M715.141 343.68C739.887 343.68 752.261 334.507 752.261 316.16C752.261 308.693 750.341 302.827 746.501 298.56C742.874 294.293 736.047 290.56 726.021 287.36L699.781 278.72C668.421 268.48 652.741 247.893 652.741 216.96C652.741 199.04 658.287 184.32 669.381 172.8C680.687 161.067 698.287 155.2 722.181 155.2C732.207 155.2 742.127 156.373 751.941 158.72C761.754 160.853 772.207 164.373 783.301 169.28L771.461 202.24C761.221 198.187 752.474 195.307 745.221 193.6C738.181 191.68 730.927 190.72 723.461 190.72C713.647 190.72 705.861 192.533 700.101 196.16C694.554 199.573 691.781 205.867 691.781 215.04C691.781 221.867 693.701 227.52 697.541 232C701.594 236.267 708.207 239.893 717.381 242.88L743.621 251.52C759.407 256.853 771.247 264.64 779.141 274.88C787.247 284.907 791.301 298.24 791.301 314.88C791.301 334.08 785.221 349.653 773.061 361.6C760.901 373.333 741.807 379.2 715.781 379.2C705.541 379.2 694.874 378.027 683.781 375.68C672.901 373.12 660.954 368.853 647.941 362.88L659.781 329.92C671.727 335.04 681.861 338.667 690.181 340.8C698.714 342.72 707.034 343.68 715.141 343.68ZM951.806 366.72C940.712 371.2 930.259 374.4 920.446 376.32C910.632 378.24 901.352 379.2 892.606 379.2C868.499 379.2 850.259 372.373 837.886 358.72C825.512 345.067 819.326 326.933 819.326 304.32V285.12C819.326 269.973 822.099 256.853 827.646 245.76C833.192 234.667 841.086 226.027 851.326 219.84C861.566 213.653 873.619 210.56 887.486 210.56C898.792 210.56 909.352 212.907 919.166 217.6C929.192 222.08 937.299 229.227 943.486 239.04C949.886 248.64 953.086 261.013 953.086 276.16C953.086 280.64 952.766 285.44 952.126 290.56C951.486 295.467 950.419 300.693 948.926 306.24H854.846C855.272 319.467 858.579 329.387 864.766 336C870.952 342.613 880.872 345.92 894.526 345.92C901.779 345.92 909.246 345.067 916.926 343.36C924.819 341.653 932.926 339.093 941.246 335.68L951.806 366.72ZM887.486 241.6C877.672 241.6 869.992 244.8 864.446 251.2C859.112 257.387 856.019 266.347 855.166 278.08H916.606C916.819 277.013 916.926 276.053 916.926 275.2C916.926 274.133 916.926 273.173 916.926 272.32C916.926 262.08 914.046 254.4 908.286 249.28C902.526 244.16 895.592 241.6 887.486 241.6ZM1092.44 376L1052.44 308.48C1046.04 314.88 1039.32 321.28 1032.28 327.68V376H995.481V139.2H1032.28V287.04C1044.44 274.667 1054.89 262.827 1063.64 251.52C1072.6 240 1080.81 227.413 1088.28 213.76H1130.52C1123.48 226.56 1115.8 238.72 1107.48 250.24C1099.16 261.76 1089.99 273.387 1079.96 285.12L1136.92 376H1092.44ZM1203.55 183.04H1164.83V144.96H1203.55V183.04ZM1202.59 376H1165.79V213.76H1202.59V376ZM1350.89 370.56C1345.35 373.12 1338.95 375.147 1331.69 376.64C1324.44 378.347 1317.08 379.2 1309.61 379.2C1297.24 379.2 1287.32 376.64 1279.85 371.52C1272.39 366.4 1266.95 359.253 1263.53 350.08C1260.33 340.907 1258.73 330.453 1258.73 318.72V245.76H1232.49V213.76H1258.73V171.52H1295.53V213.76H1346.09V245.76H1295.53V318.72C1295.53 328.533 1297.35 335.36 1300.97 339.2C1304.81 342.827 1310.25 344.64 1317.29 344.64C1320.71 344.64 1324.33 344.32 1328.17 343.68C1332.23 342.827 1336.71 341.44 1341.61 339.52L1350.89 370.56ZM1503.36 377.6C1492.48 377.6 1483.73 375.36 1477.12 370.88C1470.72 366.4 1466.03 360.853 1463.04 354.24C1453.87 362.773 1445.01 369.067 1436.48 373.12C1427.95 377.173 1418.77 379.2 1408.96 379.2C1394.67 379.2 1384.11 374.613 1377.28 365.44C1370.67 356.267 1367.36 344.64 1367.36 330.56C1367.36 321.173 1369.07 312.96 1372.48 305.92C1376.11 298.667 1381.97 293.013 1390.08 288.96C1398.19 284.907 1409.28 282.88 1423.36 282.88C1428.91 282.88 1434.67 283.307 1440.64 284.16C1446.61 284.8 1452.59 285.653 1458.56 286.72V267.84C1458.56 258.88 1456.11 252.8 1451.2 249.6C1446.29 246.187 1439.68 244.48 1431.36 244.48C1424.96 244.48 1417.92 245.333 1410.24 247.04C1402.77 248.747 1394.67 251.413 1385.92 255.04L1375.36 223.68C1396.91 214.933 1416.43 210.56 1433.92 210.56C1449.71 210.56 1461.87 213.227 1470.4 218.56C1479.15 223.893 1485.23 230.933 1488.64 239.68C1492.05 248.427 1493.76 257.813 1493.76 267.84V330.24C1493.76 333.44 1494.61 336.533 1496.32 339.52C1498.24 342.293 1501.87 343.68 1507.2 343.68H1510.72V377.6H1503.36ZM1402.88 329.92C1402.88 335.68 1404.16 340.267 1406.72 343.68C1409.28 346.88 1413.01 348.48 1417.92 348.48C1422.83 348.48 1428.37 347.2 1434.56 344.64C1440.75 342.08 1448.75 336.107 1458.56 326.72V312.96C1447.47 311.04 1436.59 310.08 1425.92 310.08C1417.6 310.08 1411.63 311.787 1408 315.2C1404.59 318.613 1402.88 323.52 1402.88 329.92ZM1634.19 247.36C1624.16 247.36 1614.56 248.96 1605.39 252.16C1596.43 255.147 1587.79 260.053 1579.47 266.88V376H1542.67V213.76H1577.55V238.72C1588.43 228.48 1598.13 221.227 1606.67 216.96C1615.2 212.693 1624.37 210.56 1634.19 210.56V247.36ZM1703.22 263.68V376H1666.42V213.76H1701.3V235.2C1711.32 226.453 1720.6 220.16 1729.14 216.32C1737.67 212.48 1746.42 210.56 1755.38 210.56C1775.22 210.56 1788.76 219.307 1796.02 236.8C1806.68 227.413 1816.6 220.693 1825.78 216.64C1834.95 212.587 1844.23 210.56 1853.62 210.56C1868.55 210.56 1879.96 215.573 1887.86 225.6C1895.75 235.413 1899.7 249.28 1899.7 267.2V376H1862.9V271.68C1862.9 253.76 1856.07 244.8 1842.42 244.8C1837.08 244.8 1831.22 246.08 1824.82 248.64C1818.42 251.2 1810.63 256.213 1801.46 263.68V376H1764.66V271.68C1764.66 253.76 1757.83 244.8 1744.18 244.8C1738.84 244.8 1732.98 246.08 1726.58 248.64C1720.18 251.2 1712.39 256.213 1703.22 263.68ZM2044.93 376V354.56C2035.12 363.093 2025.95 369.387 2017.41 373.44C2008.88 377.28 2000.24 379.2 1991.49 379.2C1976.99 379.2 1965.79 374.293 1957.89 364.48C1950 354.453 1946.05 340.48 1946.05 322.56V213.76H1982.85V318.08C1982.85 336 1989.47 344.96 2002.69 344.96C2008.03 344.96 2013.79 343.68 2019.97 341.12C2026.37 338.56 2034.05 333.653 2043.01 326.4V213.76H2079.81V376H2044.93Z" fill="white"/>
</g>
<defs>
<clipPath id="clip0">
<rect width="2084" height="512" fill="white"/>
</clipPath>
</defs>
</svg>
